icons/marketplace-otto.svg

<svg width="36" height="36" viewBox="0 0 36 36" fill="none" xmlns="http://www.w3.org/2000/svg">
    <rect x="0.5" y="0.5" width="35" height="35" rx="7.5" fill="white"/>
    <rect x="0.5" y="0.5" width="35" height="35" rx="7.5" stroke="#E9EAEC"/>
    <g clip-path="url(#clip0_2631_425)">
        <mask id="mask0_2631_425" style="mask-type:luminance" maskUnits="userSpaceOnUse" x="3" y="13" width="30"
              height="11">
            <path d="M3.7002 13.2568V23.1418H32.995V13.2568" fill="white"/>
        </mask>
        <g mask="url(#mask0_2631_425)">
            <path d="M30.2261 17.5614L30.1994 17.8803C30.0134 20.1655 29.2695 20.8698 28.3527 20.8698C27.5288 20.8698 26.9441 20.3118 27.0637 18.8237L27.0903 18.4914C27.2764 16.2193 28.0203 15.5019 28.9371 15.5019C29.7477 15.5019 30.3457 16.0734 30.2261 17.5614ZM9.63141 17.5614L9.6047 17.8803C9.4189 20.1655 8.67471 20.8698 7.75793 20.8698C6.93406 20.8698 6.34962 20.3118 6.46918 18.8237L6.49555 18.4914C6.68174 16.2193 7.42582 15.5019 8.34265 15.5019C9.15303 15.5019 9.75096 16.0734 9.63141 17.5614ZM29.2029 13.2565C27.7432 13.2565 26.5559 13.7064 25.717 14.6379C25.8365 14.3145 25.8995 13.9202 25.9077 13.4557H20.7923C19.6763 13.4557 19.0385 13.9473 18.6 15.2096L18.826 13.4557H13.6573C12.711 13.4557 12.0614 13.9082 11.8266 14.7943C11.1861 13.7678 10.048 13.2565 8.60824 13.2565C5.8713 13.2565 4.09078 14.8377 3.77188 18.2124L3.73201 18.6376C3.45298 21.6539 5.03421 23.1418 7.49212 23.1418C10.2293 23.1418 12.0099 21.5475 12.3287 18.1725L12.3686 17.7475C12.4405 16.9735 12.388 16.301 12.2296 15.7278H14.5474L13.8833 21.4147C13.7502 22.544 14.3616 23.0622 15.3845 23.0622C16.0091 23.0622 16.2216 23.0223 16.4607 22.9825L17.2846 15.7278H19.9819L19.3175 21.4147C19.1847 22.544 19.7958 23.0622 20.819 23.0622C21.4433 23.0622 21.6561 23.0223 21.8952 22.9825L22.7188 15.7278H24.0477C24.5074 15.7278 24.8787 15.621 25.1652 15.4097C24.7468 16.1469 24.4738 17.0779 24.3665 18.2124L24.3267 18.6376C24.0477 21.6539 25.6287 23.1418 28.0868 23.1418C30.824 23.1418 32.6042 21.5475 32.9232 18.1725L32.9631 17.7475C33.2421 14.7445 31.6611 13.2565 29.2029 13.2565Z"
                  fill="#DB1F26"/>
        </g>
    </g>
    <defs>
        <clipPath id="clip0_2631_425">
            <rect width="29.2999" height="9.89258" fill="white" transform="translate(3.7002 13.2493)"/>
        </clipPath>
    </defs>
</svg>

<svg xmlns="http://www.w3.org/2000/svg" fill="none" viewBox="0 0 36 36"><rect width="35" height="35" x=".5" y=".5" fill="currentColor" rx="7.5"/><rect width="35" height="35" x=".5" y=".5" stroke="currentColor" rx="7.5"/><g clip-path="url(#a)"><mask id="b" width="30" height="11" x="3" y="13" maskUnits="userSpaceOnUse" style="mask-type:luminance"><path fill="currentColor" d="M3.7 13.257v9.885h29.295v-9.885"/></mask><g mask="url(#b)"><path fill="currentColor" d="m30.226 17.561-.027.32c-.186 2.285-.93 2.989-1.846 2.989-.824 0-1.409-.558-1.29-2.046l.027-.333c.186-2.272.93-2.99 1.847-2.99.81 0 1.409.572 1.29 2.06m-20.595 0-.026.32c-.186 2.285-.93 2.989-1.847 2.989-.824 0-1.408-.558-1.289-2.046l.027-.333c.186-2.272.93-2.99 1.847-2.99.81 0 1.408.572 1.288 2.06m19.572-4.304c-1.46 0-2.647.45-3.486 1.38q.18-.484.19-1.181h-5.115c-1.116 0-1.754.491-2.192 1.754l.226-1.754h-5.169c-.946 0-1.596.452-1.83 1.338-.64-1.026-1.779-1.537-3.219-1.537-2.737 0-4.517 1.58-4.836 4.955l-.04.426c-.279 3.016 1.302 4.504 3.76 4.504 2.737 0 4.518-1.594 4.837-4.97l.04-.425c.072-.773.019-1.446-.14-2.02h2.318l-.664 5.688c-.133 1.129.479 1.647 1.502 1.647.624 0 .837-.04 1.076-.08l.824-7.254h2.697l-.665 5.687c-.132 1.129.479 1.647 1.502 1.647.624 0 .837-.04 1.076-.08l.824-7.254h1.329q.688 0 1.117-.318c-.418.737-.691 1.668-.799 2.802l-.04.426c-.278 3.016 1.303 4.504 3.76 4.504 2.738 0 4.518-1.594 4.837-4.97l.04-.425c.28-3.002-1.302-4.49-3.76-4.49"/></g></g><defs><clipPath id="a"><path fill="currentColor" d="M3.7 13.25H33v9.892H3.7z"/></clipPath></defs></svg>
